**kern	**silbe	**harmony	**chordsym	**phrase	**timestamp	**leadinstrument
*ICvox	*	*M4/4	*M4/4	*	*	*
*	*	*E-:	*E-:	*	*	*
=1	=1	=1	=1	=1	=1	=1
*E-:	*	*	*	*	*	*
*M4/4	*	*	*	*	*	*
*clefG2	*	*	*	*	*	*
2r	.	1r;	r	.	0	r
8ddq	_	.	.	.	.	.
8ee-	Hoo,	.	.	.	.	.
8dd	_	.	.	.	.	.
8b-q	_	.	.	.	.	.
8cc	hoo	.	.	.	.	.
=2	=2	=2	=2	=2	=2	=2
[4b-	_	.	.	.	.	.
=1	=1	=1	=1	=1	=1	=1
*	*	*>A_intro	*>A_intro	*>A_intro	*>A_intro	*>A_intro
.	.	1E-M	E-:maj (E- G B-)	newline	0.418	flute
16b-]	_	.	.	.	.	.
16a-	_	.	.	.	.	.
16g	_	.	.	.	.	.
16a-	_	.	.	.	.	.
2b-	...	.	.	.	.	.
=3	=3	=3	=3	=3	=3	=3
2r	.	.	.	.	.	.
=2	=2	=2	=2	=2	=2	=2
.	.	1A-M	A-:maj (E- A- C)	.	.	flute
8r	.	.	.	.	.	.
8ddq	_	.	.	.	.	.
8ee-	Hoo,	.	.	.	.	.
8dd	_	.	.	.	.	.
8b-q	_	.	.	.	.	.
8cc	hoo	.	.	.	.	.
16dd-Q	_	.	.	.	.	.
16ccQ	_	.	.	.	.	.
=4	=4	=4	=4	=4	=4	=4
1b-	...	.	.	.	.	.
=3	=3	=3	=3	=3	=3	=3
.	.	1E-M	E-:maj (E- G B-)	.	.	flute
=5	=5	=5	=5	=5	=5	=5
*clefC3	*	*	*	*	*	*
4r	.	.	.	.	.	.
=4	=4	=4	=4	=4	=4	=4
.	.	1A-M	A-:maj (E- A- C)	.	.	flute
8r	.	.	.	.	.	.
8cq	_	.	.	.	.	.
8d	Last	.	.	.	.	.
8B-q	_	.	.	.	.	.
8c	dance,	.	.	.	.	.
4.B-	_	.	.	.	.	.
=6	=6	=6	=6	=6	=6	=6
4r	_	.	.	.	.	.
=5	=5	=5	=5	=5	=5	=5
*	*	*>B_verse	*>B_verse	*>B_verse	*>B_verse	*>B_verse
.	.	1E-MM	E-:maj7 (E- G B- D)	newline	15.706	voice
8r	.	.	.	.	.	.
8cq	_	.	.	.	.	.
8d	last	.	.	.	.	.
8B-q	_	.	.	.	.	.
8c	chance	.	.	.	.	.
4B-	_	.	.	.	.	.
16c	for	.	.	.	.	.
[16B-	_	.	.	.	.	.
=7	=7	=7	=7	=7	=7	=7
16B-]	_	.	.	.	.	.
32c	love	.	.	.	.	.
32d-	_	.	.	.	.	.
=6	=6	=6	=6	=6	=6	=6
32c	_	1A-M	A-:maj (E- A- C)	.	.	voice
[16.B-	_	.	.	.	.	.
4B-]	_	.	.	.	.	.
2r	.	.	.	.	.	.
=8	=8	=8	=8	=8	=8	=8
2r	.	.	.	.	.	.
=7	=7	=7	=7	=7	=7	=7
.	.	1E-MM	E-:maj7 (E- G B- D)	.	.	voice
4r	.	.	.	.	.	.
16B-	Yes,	.	.	.	.	.
8c	it's	.	.	.	.	.
[16B-	my	.	.	.	.	.
=9	=9	=9	=9	=9	=9	=9
16B-]	_	.	.	.	.	.
8cq	_	.	.	.	.	.
8.d	last	.	.	.	.	.
=8	=8	=8	=8	=8	=8	=8
.	.	1B-Am	B-:aug(b7) (B- D F# A-)	.	.	voice
8B-q	_	.	.	.	.	.
8c	chance	.	.	.	.	.
[8B-	_	.	.	.	.	.
4B-]	_	.	.	.	.	.
8.r	.	.	.	.	.	.
16E-	for	.	.	.	.	.
=10	=10	=10	=10	=10	=10	=10
8e-	ro-	.	.	.	.	.
=9	=9	=9	=9	=9	=9	=9
[4.e-	-mance	1E-MM	E-:maj7 (E- G B- D)	newline	30.844	voice
8e-]	_	.	.	.	.	.
4r	.	.	.	.	.	.
16c	to-	.	.	.	.	.
[16B-	-night	.	.	.	.	.
=11	=11	=11	=11	=11	=11	=11
16B-]	_	.	.	.	.	.
32c	_	.	.	.	.	.
32d-	_	.	.	.	.	.
=10	=10	=10	=10	=10	=10	=10
32c	_	1A-M	A-:maj (E- A- C)	.	.	voice
[16B-	_	.	.	.	.	.
[32c	_	.	.	.	.	.
16c]	_	.	.	.	.	.
16B-q	_	.	.	.	.	.
16c	_	.	.	.	.	.
[8B-	_	.	.	.	.	.
2B-]	_	.	.	.	.	.
=12	=12	=12	=12	=12	=12	=12
2r	.	.	.	.	.	.
=11	=11	=11	=11	=11	=11	=11
.	.	1E-Mm	E-:7 (E- G B- D-)	.	.	voice
4r	.	.	.	.	.	.
8r	.	.	.	.	.	.
8e-	I	.	.	.	.	.
=13	=13	=13	=13	=13	=13	=13
8e-	need	.	.	.	.	.
=12	=12	=12	=12	=12	=12	=12
16e-	you	1E-Mm	E-:7 (E- G B- D-)	.	.	voice
[16c	_	.	.	.	.	.
16c]	_	.	.	.	.	.
8.r	.	.	.	.	.	.
2r	.	.	.	.	.	.
=14	=14	=14	=14	=14	=14	=14
8e-q	_	.	.	.	.	.
8f	by	.	.	.	.	.
=13	=13	=13	=13	=13	=13	=13
16f	me,	1A-MM	A-:maj7 (A- C E- G)	newline	46.068	voice
16d	_	.	.	.	.	.
4r	_	.	.	.	.	.
4r	.	.	.	.	.	.
8.r	.	.	.	.	.	.
16f	be-	.	.	.	.	.
=15	=15	=15	=15	=15	=15	=15
8g	-side	.	.	.	.	.
=14	=14	=14	=14	=14	=14	=14
8f#q	_	.	.	.	.	.
[4.g	me	1B-M	B-:maj (A- B- D F)	.	.	voice
4g]	_	.	.	.	.	.
8fq	_	.	.	.	.	.
8g	to	.	.	.	.	.
32g-	guide	.	.	.	.	.
32f	_	.	.	.	.	.
[16e-	_	.	.	.	.	.
=16	=16	=16	=16	=16	=16	=16
16e-]	_	.	.	.	.	.
32f	me	.	.	.	.	.
[32e-	_	.	.	.	.	.
=15	=15	=15	=15	=15	=15	=15
8e-_	_	1Gmm	G:min7 (G B- D F)	.	.	voice
4e-]	_	.	.	.	.	.
4r	.	.	.	.	.	.
8.r	.	.	.	.	.	.
16e-	To	.	.	.	.	.
=17	=17	=17	=17	=17	=17	=17
16e-q	_	.	.	.	.	.
16f	hold	.	.	.	.	.
8e-	_	.	.	.	.	.
=16	=16	=16	=16	=16	=16	=16
.	.	1Cm	C:min (C E- G)	.	.	voice
16e-	me,	.	.	.	.	.
16c	_	.	.	.	.	.
8.r	_	.	.	.	.	.
4r	.	.	.	.	.	.
8.r	.	.	.	.	.	.
16e-	to	.	.	.	.	.
=18	=18	=18	=18	=18	=18	=18
8e-q	_	.	.	.	.	.
8f	scold	.	.	.	.	.
=17	=17	=17	=17	=17	=17	=17
8f	me,	1A-MM	A-:maj7 (A- C E- G)	newline	61.164	voice
4r	_	.	.	.	.	.
8r	.	.	.	.	.	.
8d	cuz	.	.	.	.	.
16e-	when	.	.	.	.	.
16f	I'm	.	.	.	.	.
8f#q	_	.	.	.	.	.
[8g	bad,	.	.	.	.	.
=19	=19	=19	=19	=19	=19	=19
4g]	_	.	.	.	.	.
=18	=18	=18	=18	=18	=18	=18
.	.	1B-M	B-:maj (A- B- D F)	.	.	voice
4g	I'm	.	.	.	.	.
8fq	_	.	.	.	.	.
6g	so,	.	.	.	.	.
8fq	_	.	.	.	.	.
6g	so	.	.	.	.	.
24f	bad!	.	.	.	.	.
24f#	_	.	.	.	.	.
24f	_	.	.	.	.	.
24e-	_	.	.	.	.	.
=20	=20	=20	=20	=20	=20	=20
32f	_	.	.	.	.	.
32e-	_	.	.	.	.	.
32f	_	.	.	.	.	.
[32e-	_	.	.	.	.	.
=19	=19	=19	=19	=19	=19	=19
8e-_	_	2Gmm	G:min7 (G B- D F)	.	.	voice
4e-_	_	.	.	.	.	.
4e-]	_	.	.	.	.	.
.	.	2GMm	G:7 (G B D F)	.	.	voice
4r	_	.	.	.	.	.
=21	=21	=21	=21	=21	=21	=21
2r	.	.	.	.	.	.
=20	=20	=20	=20	=20	=20	=20
.	.	2Cm	C:min (C E- G)	.	.	voice
4r	.	.	.	.	.	.
.	.	2FMm	F:9 (F A E- G)	.	.	voice
8r	.	.	.	.	.	.
8e-	So	.	.	.	.	.
=22	=22	=22	=22	=22	=22	=22
8.e-	let's	.	.	.	.	.
=21	=21	=21	=21	=21	=21	=21
.	.	1FMm	F:9 (F A E- G)	.	.	voice
16B-q	_	.	.	.	.	.
[16c	dance	.	.	.	.	.
8c]	_	.	.	.	.	.
[8B-	_	.	.	.	.	.
8B-]	_	.	.	.	.	.
4r	.	.	.	.	.	.
8e-	The	.	.	.	.	.
=23	=23	=23	=23	=23	=23	=23
8.e-	last	.	.	.	.	.
.	.	1r;	r	.	.	r
16e-q	_	.	.	.	.	.
[16f	dance	.	.	.	.	.
8f]	_	.	.	.	.	.
[8e-	_	.	.	.	.	.
8e-]	_	.	.	.	.	.
4r	.	.	.	.	.	.
8e-	L-	.	.	.	.	.
=24	=24	=24	=24	=24	=24	=24
8.e-	-let's	.	.	.	.	.
=22	=22	=22	=22	=22	=22	=22
*	*	*>A_chorus	*>A_chorus	*>A_chorus	*>A_chorus	*>A_chorus
.	.	1E-M	E-:maj (B- E- G)	newline	80.179	r
16B-q	_	.	.	.	.	.
[16c	dance,	.	.	.	.	.
8c]	_	.	.	.	.	.
[8B-	_	.	.	.	.	.
8B-]	_	.	.	.	.	.
4r	_	.	.	.	.	.
8e-	the	.	.	.	.	.
=25	=25	=25	=25	=25	=25	=25
8.e-	last	.	.	.	.	.
=23	=23	=23	=23	=23	=23	=23
.	.	1A-M	A-:maj (B- A- C E-)	.	.	r
16e-q	_	.	.	.	.	.
[16f	dance!	.	.	.	.	.
8f]	_	.	.	.	.	.
[8e-	_	.	.	.	.	.
8e-]	_	.	.	.	.	.
4r	_	.	.	.	.	.
8e-	L-	.	.	.	.	.
=26	=26	=26	=26	=26	=26	=26
8.e-	-let's	.	.	.	.	.
=24	=24	=24	=24	=24	=24	=24
.	.	1E-M	E-:maj (B- E- G)	.	.	r
16B-q	_	.	.	.	.	.
[16c	dance	.	.	.	.	.
8c]	_	.	.	.	.	.
[8B-	_	.	.	.	.	.
8B-]	_	.	.	.	.	.
4r	.	.	.	.	.	.
8e-	the	.	.	.	.	.
=27	=27	=27	=27	=27	=27	=27
8.e-	last	.	.	.	.	.
=25	=25	=25	=25	=25	=25	=25
.	.	1A-M	A-:maj (B- A- C E-)	.	.	r
16e-q	_	.	.	.	.	.
[16f	dance,	.	.	.	.	.
8f]	_	.	.	.	.	.
[8e-	_	.	.	.	.	.
8e-]	_	.	.	.	.	.
8r	_	.	.	.	.	.
8f	to	.	.	.	.	.
8e-	_	.	.	.	.	.
=28	=28	=28	=28	=28	=28	=28
8fq	_	.	.	.	.	.
[1g	night!	.	.	.	.	.
=26	=26	=26	=26	=26	=26	=26
.	.	1E-M	E-:maj (B- E- G)	newline	87.768	r
=29	=29	=29	=29	=29	=29	=29
4.g]	_	.	.	.	.	.
=27	=27	=27	=27	=27	=27	=27
.	.	1A-M	A-:maj (B- A- C E-)	.	.	r
8r	_	.	.	.	.	.
2r	.	.	.	.	.	.
=30	=30	=30	=30	=30	=30	=30
8.d	Last	.	.	.	.	.
=28	=28	=28	=28	=28	=28	=28
.	.	1FMm	F:9 (A F E- G)	newline	91.64	r
16B-q	_	.	.	.	.	.
[16c	dance,	.	.	.	.	.
8c]	_	.	.	.	.	.
[8B-	_	.	.	.	.	.
8B-]	_	.	.	.	.	.
8r	_	.	.	.	.	.
4r	.	.	.	.	.	.
=31	=31	=31	=31	=31	=31	=31
8.d	last	.	.	.	.	.
=29	=29	=29	=29	=29	=29	=29
.	.	1B-M	B-:maj (B- D F)	.	.	r
16B-q	_	.	.	.	.	.
[16c	chance,	.	.	.	.	.
8c]	_	.	.	.	.	.
[8B-	_	.	.	.	.	.
4B-]	_	.	.	.	.	.
8c	for	.	.	.	.	.
[8B-	_	.	.	.	.	.
=32	=32	=32	=32	=32	=32	=32
8B-]	_	.	.	.	.	.
=30	=30	=30	=30	=30	=30	=30
*	*	*>B_verse	*>B_verse	*>B_verse	*>B_verse	*>B_verse
16c	love	1E-MM	E-:maj7 (E- G B- D)	newline	95.373	r
16d-	_	.	.	.	.	.
16c	_	.	.	.	.	.
[8.B-	_	.	.	.	.	.
4.B-]	_	.	.	.	.	.
8r	.	.	.	.	.	.
=33	=33	=33	=33	=33	=33	=33
2r	.	.	.	.	.	.
=31	=31	=31	=31	=31	=31	=31
.	.	1A-M	A-:maj (E- A- C)	.	.	r
6B-	Yes,	.	.	.	.	.
6c	it's	.	.	.	.	.
6B-	my	.	.	.	.	.
=34	=34	=34	=34	=34	=34	=34
8cq	_	.	.	.	.	.
8.d	last	.	.	.	.	.
=32	=32	=32	=32	=32	=32	=32
.	.	1E-MM	E-:maj7 (E- G B- D)	.	.	r
16B-q	_	.	.	.	.	.
[16c	chance	.	.	.	.	.
8c]	_	.	.	.	.	.
[8B-	_	.	.	.	.	.
8B-]	_	.	.	.	.	.
4r	.	.	.	.	.	.
8E-	for	.	.	.	.	.
=35	=35	=35	=35	=35	=35	=35
8.e-	ro-	.	.	.	.	.
=33	=33	=33	=33	=33	=33	=33
.	.	1B-Am	B-:aug(b7) (B- D F# A-)	.	.	r
[16e-	-mance	.	.	.	.	.
4e-_	_	.	.	.	.	.
4e-]	_	.	.	.	.	.
8e-q	_	.	.	.	.	.
8c	to	.	.	.	.	.
[8B-	_	.	.	.	.	.
=36	=36	=36	=36	=36	=36	=36
8B-]	_	.	.	.	.	.
=34	=34	=34	=34	=34	=34	=34
16c	night	1E-MM	E-:maj7 (E- G B- D)	newline	103.004	r
16d-	_	.	.	.	.	.
16c	_	.	.	.	.	.
8B-	_	.	.	.	.	.
16c	_	.	.	.	.	.
8cq	_	.	.	.	.	.
16c	_	.	.	.	.	.
[8.B-	_	.	.	.	.	.
4B-]	_	.	.	.	.	.
=37	=37	=37	=37	=37	=37	=37
4r	.	.	.	.	.	.
=35	=35	=35	=35	=35	=35	=35
.	.	1A-M	A-:maj (E- A- C)	.	.	r
4g	Oh,	.	.	.	.	.
8a-q	_	.	.	.	.	.
4b-	oh,	.	.	.	.	.
8fq	_	.	.	.	.	.
8g-	I	.	.	.	.	.
[8f	_	.	.	.	.	.
=38	=38	=38	=38	=38	=38	=38
8f]	_	.	.	.	.	.
=36	=36	=36	=36	=36	=36	=36
8e-q	_	.	.	.	.	.
8f	need	1E-Mm	E-:7 (E- G B- D-)	.	.	r
8e-	_	.	.	.	.	.
8e-	you,	.	.	.	.	.
8c	_	.	.	.	.	.
4r	_	.	.	.	.	.
8e-q	_	.	.	.	.	.
[8f	by	.	.	.	.	.
=39	=39	=39	=39	=39	=39	=39
4f]	_	.	.	.	.	.
=37	=37	=37	=37	=37	=37	=37
.	.	1E-Mm	E-:7 (E- G B- D-)	.	.	r
8f	me,	.	.	.	.	.
8d	_	.	.	.	.	.
4r	_	.	.	.	.	.
8f	be-	.	.	.	.	.
8fq	_	.	.	.	.	.
[8g	-side	.	.	.	.	.
=40	=40	=40	=40	=40	=40	=40
8g]	_	.	.	.	.	.
=38	=38	=38	=38	=38	=38	=38
[4.g	me	1A-MM	A-:maj7 (A- C E- G)	newline	110.609	r
8g]	_	.	.	.	.	.
8b-	_	.	.	.	.	.
8fq	_	.	.	.	.	.
8g-	to	.	.	.	.	.
8f	guide	.	.	.	.	.
=41	=41	=41	=41	=41	=41	=41
8e-	_	.	.	.	.	.
=39	=39	=39	=39	=39	=39	=39
8e-	me!	1B-M	B-:maj (A- B- D F)	.	.	r
4r	_	.	.	.	.	.
4r	.	.	.	.	.	.
16r	.	.	.	.	.	.
16e-	To	.	.	.	.	.
8e-q	_	.	.	.	.	.
[8f	hold	.	.	.	.	.
=42	=42	=42	=42	=42	=42	=42
16f]	_	.	.	.	.	.
16e-	_	.	.	.	.	.
=40	=40	=40	=40	=40	=40	=40
16e-	me,	1Gmm	G:min7 (G B- D F)	.	.	r
16r	_	.	.	.	.	.
4r	.	.	.	.	.	.
4r	.	.	.	.	.	.
8e-	to	.	.	.	.	.
8e-q	_	.	.	.	.	.
[8f	scold	.	.	.	.	.
=43	=43	=43	=43	=43	=43	=43
4f]	_	.	.	.	.	.
=41	=41	=41	=41	=41	=41	=41
.	.	1Cm	C:min (C E- G)	.	.	r
4f	me,	.	.	.	.	.
8d	cuz	.	.	.	.	.
8e-	when	.	.	.	.	.
8f	I'm	.	.	.	.	.
8fq	_	.	.	.	.	.
[8g	bad	.	.	.	.	.
=44	=44	=44	=44	=44	=44	=44
4g]	_	.	.	.	.	.
=42	=42	=42	=42	=42	=42	=42
.	.	1A-MM	A-:maj7 (A- C E- G)	newline	118.201	r
4g	I'm	.	.	.	.	.
8g	so,	.	.	.	.	.
4g	so	.	.	.	.	.
24g-	bad!	.	.	.	.	.
24f	_	.	.	.	.	.
24e-	_	.	.	.	.	.
=45	=45	=45	=45	=45	=45	=45
16.f	_	.	.	.	.	.
32e-	_	.	.	.	.	.
=43	=43	=43	=43	=43	=43	=43
16f	_	1B-M	B-:maj (A- B- D F)	.	.	r
[16e-	_	.	.	.	.	.
4e-_	_	.	.	.	.	.
4e-]	_	.	.	.	.	.
4e-	So	.	.	.	.	.
=46	=46	=46	=46	=46	=46	=46
8.g	let's	.	.	.	.	.
=44	=44	=44	=44	=44	=44	=44
.	.	2Gmm	G:min7 (G B- D F)	.	.	r
[16g	dance	.	.	.	.	.
4g]	_	.	.	.	.	.
4r	.	.	.	.	.	.
.	.	2GMm	G:7 (G B D F)	.	.	r
8r	.	.	.	.	.	.
8e-	the	.	.	.	.	.
=47	=47	=47	=47	=47	=47	=47
8.e-	last	.	.	.	.	.
=45	=45	=45	=45	=45	=45	=45
.	.	2Cm	C:min (C E- G)	.	.	r
16e-q	_	.	.	.	.	.
[16f	dance,	.	.	.	.	.
8f]	_	.	.	.	.	.
[8e-	_	.	.	.	.	.
8e-]	_	.	.	.	.	.
4r	_	2FMm	F:9 (F A E- G)	.	.	r
8e-	l-	.	.	.	.	.
=48	=48	=48	=48	=48	=48	=48
8.g	-let's	.	.	.	.	.
=46	=46	=46	=46	=46	=46	=46
*	*	*>A_chorus	*>A_chorus	*>A_chorus	*>A_chorus	*>A_chorus
.	.	1E-M	E-:maj (B- E- G)	newline	125.809	r
[16g	dance,	.	.	.	.	.
4g]	_	.	.	.	.	.
4r	_	.	.	.	.	.
8r	.	.	.	.	.	.
8e-	the	.	.	.	.	.
=49	=49	=49	=49	=49	=49	=49
8.e-	last	.	.	.	.	.
=47	=47	=47	=47	=47	=47	=47
.	.	1A-M	A-:maj (B- A- C E-)	.	.	r
16e-q	_	.	.	.	.	.
[16f	dance,	.	.	.	.	.
8f]	_	.	.	.	.	.
[8e-	_	.	.	.	.	.
8e-]	_	.	.	.	.	.
4r	_	.	.	.	.	.
8e-	l-	.	.	.	.	.
=50	=50	=50	=50	=50	=50	=50
*F:	*	*	*	*	*	*
8.a	-let's	.	.	.	.	.
=48	=48	=48	=48	=48	=48	=48
.	.	1E-M	E-:maj (B- E- G)	.	.	r
[16a	dance,	.	.	.	.	.
4a]	_	.	.	.	.	.
4r	_	.	.	.	.	.
8r	.	.	.	.	.	.
8f	the	.	.	.	.	.
=51	=51	=51	=51	=51	=51	=51
8.f	last	.	.	.	.	.
=49	=49	=49	=49	=49	=49	=49
.	.	1A-M	A-:maj (B- A- C E-)	.	.	r
16fq	_	.	.	.	.	.
[16g	dance	.	.	.	.	.
8g]	_	.	.	.	.	.
[8f	_	.	.	.	.	.
4f]	_	.	.	.	.	.
8g	to	.	.	.	.	.
8f	_	.	.	.	.	.
=52	=52	=52	=52	=52	=52	=52
8gq	_	.	.	.	.	.
[1a	night!	.	.	.	.	.
=50	=50	=50	=50	=50	=50	=50
*	*	*F:	*F:	*F:	*F:	*F:
.	.	1FM	F:maj (C F A)	newline	133.396	r
=53	=53	=53	=53	=53	=53	=53
1a]	_	.	.	.	.	.
=51	=51	=51	=51	=51	=51	=51
.	.	1B-M	B-:maj (C B- D F)	.	.	r
=54	=54	=54	=54	=54	=54	=54
8gq	_	.	.	.	.	.
1b-	_	.	.	.	.	.
=52	=52	=52	=52	=52	=52	=52
.	.	1GMm	G:9 (B G F A)	newline	137.178	voice
=55	=55	=55	=55	=55	=55	=55
*clefG2	*	*	*	*	*	*
[1ff	Ahh	.	.	.	.	.
=53	=53	=53	=53	=53	=53	=53
.	.	1B-MM	B-:maj7 (B- D F A)	.	.	voice
=56	=56	=56	=56	=56	=56	=56
1ff_	_	.	.	.	.	.
=54	=54	=54	=54	=54	=54	=54
.	.	1FM	F:maj (A F C)	.	.	voice
=57	=57	=57	=57	=57	=57	=57
8ff]	_	.	.	.	.	.
=55	=55	=55	=55	=55	=55	=55
8dd	hoo,	2Gmm	G:min7 (G B- D F)	.	.	voice
8cc	_	.	.	.	.	.
8dd	_	.	.	.	.	.
8ccq	_	.	.	.	.	.
8dd	hoo!	.	.	.	.	.
4cc	_	2CM	C:sus4(b7,9) (C F G B- D)	.	.	voice
8dd	_	.	.	.	.	.
=58	=58	=58	=58	=58	=58	=58
4r	_	.	.	.	.	.
=56	=56	=56	=56	=56	=56	=56
*	*	*>B_verse	*>B_verse	*>B_verse	*>B_verse	*>B_verse
.	.	1FM	F:maj (F A C)	newline	144.826	strings
16r	.	.	.	.	.	.
8dd	Hoo	.	.	.	.	.
16ccq	_	.	.	.	.	.
[16dd	hoo!	.	.	.	.	.
16dd]	_	.	.	.	.	.
[8.cc	_	.	.	.	.	.
16cc]	_	.	.	.	.	.
8dd	_	.	.	.	.	.
16r	_	.	.	.	.	.
=59	=59	=59	=59	=59	=59	=59
4r	.	.	.	.	.	.
=57	=57	=57	=57	=57	=57	=57
.	.	1B-M	B-:maj (F B- D)	.	.	strings
8r	.	.	.	.	.	.
8ccq	_	.	.	.	.	.
[8dd	Yeah	.	.	.	.	.
8dd]	_	.	.	.	.	.
4cc	_	.	.	.	.	.
8dd	yee	.	.	.	.	.
=60	=60	=60	=60	=60	=60	=60
4a	yee	.	.	.	.	.
=58	=58	=58	=58	=58	=58	=58
.	.	1FM	F:maj (F A C)	.	.	strings
8r	...	.	.	.	.	.
8ccq	_	.	.	.	.	.
8dd	Hoo,	.	.	.	.	.
[4cc	_	.	.	.	.	.
16cc]	_	.	.	.	.	.
16b-	_	.	.	.	.	.
8a	_	.	.	.	.	.
=61	=61	=61	=61	=61	=61	=61
4r	_	.	.	.	.	.
=59	=59	=59	=59	=59	=59	=59
.	.	1CAm	C:aug(b7) (C E G# B-)	.	.	strings
16r	.	.	.	.	.	.
8dd	hoo	.	.	.	.	.
16ccq	_	.	.	.	.	.
[16dd	hoo	.	.	.	.	.
16dd]	_	.	.	.	.	.
[8.cc	_	.	.	.	.	.
16cc]	_	.	.	.	.	.
8dd	_	.	.	.	.	.
[16cc	_	.	.	.	.	.
=62	=62	=62	=62	=62	=62	=62
16cc]	_	.	.	.	.	.
16ddq	_	.	.	.	.	.
8ee-	hoo	.	.	.	.	.
=60	=60	=60	=60	=60	=60	=60
.	.	1FM	F:maj (F A C)	newline	152.395	strings
[16dd	_	.	.	.	.	.
16dd]	_	.	.	.	.	.
16ccq	_	.	.	.	.	.
8dd	hoo	.	.	.	.	.
16ccq	_	.	.	.	.	.
[16dd	hoo!	.	.	.	.	.
16dd]	_	.	.	.	.	.
[8.cc	_	.	.	.	.	.
8.cc]	_	.	.	.	.	.
16r	_	.	.	.	.	.
=63	=63	=63	=63	=63	=63	=63
4r	.	.	.	.	.	.
=61	=61	=61	=61	=61	=61	=61
.	.	1B-M	B-:maj (F B- D)	.	.	strings
4gq	_	.	.	.	.	.
4a	Oh,	.	.	.	.	.
4a	_	.	.	.	.	.
4aq	_	.	.	.	.	.
4g	I	.	.	.	.	.
=64	=64	=64	=64	=64	=64	=64
8f	n-	.	.	.	.	.
=62	=62	=62	=62	=62	=62	=62
8g	-need	1FMm	F:7 (F A C E-)	.	.	strings
8f	_	.	.	.	.	.
[8f	you,	.	.	.	.	.
4.f]	_	.	.	.	.	.
8fq	_	.	.	.	.	.
[8g	by	.	.	.	.	.
=65	=65	=65	=65	=65	=65	=65
4g]	_	.	.	.	.	.
=63	=63	=63	=63	=63	=63	=63
.	.	1FMm	F:7 (F A C E-)	.	.	strings
8g	me,	.	.	.	.	.
8e	_	.	.	.	.	.
4r	_	.	.	.	.	.
8.r	.	.	.	.	.	.
16gq	B'side	.	.	.	.	.
[16a	_	.	.	.	.	.
=66	=66	=66	=66	=66	=66	=66
8a]	_	.	.	.	.	.
=64	=64	=64	=64	=64	=64	=64
[4.a	me,	1B-MM	B-:maj7 (B- D F A)	newline	160.007	voice
4a]	_	.	.	.	.	.
8gq	_	.	.	.	.	.
8a	to	.	.	.	.	.
8g	guide	.	.	.	.	.
=67	=67	=67	=67	=67	=67	=67
8f	_	.	.	.	.	.
=65	=65	=65	=65	=65	=65	=65
8fq	_	.	.	.	.	.
8g	me!	1CM	C:maj (B- C E G)	.	.	voice
8f	_	.	.	.	.	.
8fq	_	.	.	.	.	.
8g	_	.	.	.	.	.
4f	_	.	.	.	.	.
8f	To	.	.	.	.	.
8a-q	_	.	.	.	.	.
[8a	hold	.	.	.	.	.
=68	=68	=68	=68	=68	=68	=68
8a]	_	.	.	.	.	.
=66	=66	=66	=66	=66	=66	=66
8g	_	1Amm	A:min7 (A C E G)	.	.	voice
8g	me,	.	.	.	.	.
[8f	_	.	.	.	.	.
8f]	_	.	.	.	.	.
8r	_	.	.	.	.	.
8f	to	.	.	.	.	.
8gq	_	.	.	.	.	.
[8a	scold	.	.	.	.	.
=69	=69	=69	=69	=69	=69	=69
8a]	_	.	.	.	.	.
=67	=67	=67	=67	=67	=67	=67
8g	_	1Dm	D:min (D F A)	.	.	voice
8g	me,	.	.	.	.	.
8r	_	.	.	.	.	.
8e	cuz	.	.	.	.	.
8f	when	.	.	.	.	.
8g	I'm	.	.	.	.	.
8gq	_	.	.	.	.	.
[8a	bad,	.	.	.	.	.
=70	=70	=70	=70	=70	=70	=70
4a]	_	.	.	.	.	.
=68	=68	=68	=68	=68	=68	=68
.	.	1B-MM	B-:maj7 (B- D F A)	newline	167.61	voice
4a	I'm	.	.	.	.	.
4cc#	so,	.	.	.	.	.
8gq	_	.	.	.	.	.
8a	so	.	.	.	.	.
8g	_	.	.	.	.	.
=71	=71	=71	=71	=71	=71	=71
8fq	_	.	.	.	.	.
16g	_	.	.	.	.	.
16a-	_	.	.	.	.	.
=69	=69	=69	=69	=69	=69	=69
16g	_	1CM	C:maj (B- C E G)	.	.	voice
[16f	_	.	.	.	.	.
8f]	_	.	.	.	.	.
[8f	bad!	.	.	.	.	.
4f]	_	.	.	.	.	.
8f	So	.	.	.	.	.
8d	_	.	.	.	.	.
=72	=72	=72	=72	=72	=72	=72
8r	.	.	.	.	.	.
=70	=70	=70	=70	=70	=70	=70
16a-	come	2Amm	A:min7 (A C E G)	.	.	voice
[16a	on,	.	.	.	.	.
8a]	_	.	.	.	.	.
[8f	ba	.	.	.	.	.
8f]	_	.	.	.	.	.
8d	by!	2AMm	A:7 (A C# E G)	.	.	voice
4r	_	.	.	.	.	.
=73	=73	=73	=73	=73	=73	=73
8r	.	.	.	.	.	.
=71	=71	=71	=71	=71	=71	=71
[8f	Dance	2Dm	D:min (D F A)	.	.	voice
16f]	_	.	.	.	.	.
8f	that	.	.	.	.	.
[16f	dance!	.	.	.	.	.
8f]	_	.	.	.	.	.
8r	_	2GMm	G:9 (D G B F A)	.	.	voice
4r	.	.	.	.	.	.
=74	=74	=74	=74	=74	=74	=74
8r	.	.	.	.	.	.
=72	=72	=72	=72	=72	=72	=72
*	*	*>A_chorus	*>A_chorus	*>A_chorus	*>A_chorus	*>A_chorus
16a-	Come	1FM	F:maj (C F A)	newline	175.151	voice
[16a	on,	.	.	.	.	.
8a]	_	.	.	.	.	.
[8f	ba	.	.	.	.	.
8f]	_	.	.	.	.	.
8d	by!	.	.	.	.	.
4r	_	.	.	.	.	.
=75	=75	=75	=75	=75	=75	=75
8r	.	.	.	.	.	.
=73	=73	=73	=73	=73	=73	=73
8fq	_	.	.	.	.	.
[8g	Dance	1B-M	B-:maj (C B- D F)	.	.	voice
16g]	_	.	.	.	.	.
8fq	_	.	.	.	.	.
8.g	that	.	.	.	.	.
8.f	dance!	.	.	.	.	.
16d	_	.	.	.	.	.
4r	_	.	.	.	.	.
=76	=76	=76	=76	=76	=76	=76
8r	.	.	.	.	.	.
=74	=74	=74	=74	=74	=74	=74
8a-	Come	1FM	F:maj (C F A)	.	.	voice
[8a	on,	.	.	.	.	.
[8f	ba	.	.	.	.	.
8f]	_	.	.	.	.	.
8d	by!	.	.	.	.	.
4r	_	.	.	.	.	.
=77	=77	=77	=77	=77	=77	=77
8r	.	.	.	.	.	.
=75	=75	=75	=75	=75	=75	=75
8g	Let's	1B-M	B-:maj (C B- D F)	.	.	voice
8b-	_	.	.	.	.	.
8a-	dance	.	.	.	.	.
4f	_	.	.	.	.	.
8g	to	.	.	.	.	.
8f	_	.	.	.	.	.
=78	=78	=78	=78	=78	=78	=78
[1a	night!	.	.	.	.	.
=76	=76	=76	=76	=76	=76	=76
.	.	1FM	F:maj (C F A)	newline	182.743	voice
=79	=79	=79	=79	=79	=79	=79
1a_	_	.	.	.	.	.
=77	=77	=77	=77	=77	=77	=77
.	.	1B-M	B-:maj (C B- D F)	.	.	voice
=80	=80	=80	=80	=80	=80	=80
1a]	_	.	.	.	.	.
=78	=78	=78	=78	=78	=78	=78
.	.	1GMm	G:9 (B G F A)	newline	186.545	voice
=81	=81	=81	=81	=81	=81	=81
4r	_	.	.	.	.	.
=79	=79	=79	=79	=79	=79	=79
.	.	1B-MM	B-:maj7 (B- D F A)	.	.	voice
8r	.	.	.	.	.	.
16g	Yeah!	.	.	.	.	.
16a-	_	.	.	.	.	.
8g	_	.	.	.	.	.
8fq	_	.	.	.	.	.
8g	_	.	.	.	.	.
16a-	_	.	.	.	.	.
16g	_	.	.	.	.	.
[8f	_	.	.	.	.	.
=82	=82	=82	=82	=82	=82	=82
1f]	_	.	.	.	.	.
=80	=80	=80	=80	=80	=80	=80
.	.	1FM	F:maj (A F C)	.	.	voice
=83	=83	=83	=83	=83	=83	=83
1r	.	.	.	.	.	.
=81	=81	=81	=81	=81	=81	=81
.	.	2Gmm	G:min7 (G B- D F)	.	.	voice
.	.	2CM	C:sus4(b7,9) (C F G B- D)	.	.	voice
*-	*-	*	*
.	.	.	.	.
=82	=82	=82	=82	=82
1CM	C:sus4(b7,9) (C F G B- D)	newline	194.183	strings
=83	=83	=83	=83	=83
1FM	F:maj (F A C)	.	.	strings
1r;	r	.	197.068	r
1r;	r	.	199.654	r
*-	*-	*-	*-	*-
!!!BillboardChartDate: 1978/07/01, 1978/09/23, 1978/05/20
!!!BillboardPeak: 3, 3, 3
!!!BillboardWeeksOnChart: 21, 21, 21
!!!COC: Donna Summer
!!!ENC: Johnathan Eldridge
!!!EST: Awating manual error checking and editing.
!!!OTL: Last Dance
!!!RDF**chordsym: original McGill chord annotation + (implied pitch class set, with bass pitch in first position)
!!!RDF**harmony: **recip + pitch class of root + harmonic quality
!!!RDF**leadinstrument: original McGill primary instrumentation annotation
!!!RDF**phrase: newline = linebreak in original McGill transcription
!!!RDF**timestamp: McGill audio timestamp in seconds
!!!RDT: 2017/01/12/
!!!SampleActualRank: 17, 98, 75
!!!SampleID#: 501, 1217, 1242
!!!SampleTargetRank: 17, 99, 77
